!!!COM: Music21
!!!OTL: strathspey_Struy-Vale
!!!OMV: strathspey_Struy-Vale
**kern
*clefG2
*k[f#]
*G:
*M4/4
=1
2g
4.g
8a
=
8.bL
16gJk
16bKL
8.ddJ
4ee
16ff#KL
8.ggJ
=
4.dd
8b
8.ccL
16bJk
16aKL
8.gJ
=
4e
4a
4a
16aKL
8.bJ
=
2g
4.g
8a
=
8.bL
16gJk
16bKL
8.ddJ
4ee
16ff#KL
8.ggJ
!!linebreak:original
=
4.dd
8b
8.ccL
16bJk
16aKL
8.gJ
=
4d
4g
4g
4r
=||
*M4/4
2g
4.g
8a
=
8.bL
16gJk
16bKL
8.ddJ
4ee
16ff#KL
8.ggJ
=
4.dd
8b
8.ccL
16bJk
16aKL
8.gJ
=
4e
4a
4a
16aKL
8.bJ
!!linebreak:original
=
2g
4.g
8a
=
8.bL
16gJk
16bKL
8.ddJ
4ee
16ff#KL
8.ggJ
=
4.dd
8b
8.ccL
16bJk
16aKL
8.gJ
=
4d
4g
4g
4r
=||
4.dd
8ee
8.ddL
16bJk
16aKL
8.bJ
=
8.eeL
16bJk
16aKL
8.bJ
4.dd
8ffn
!!linebreak:original
=
8eeL
16ffnL
16eeJJ
8.ddL
16eeJk
8.ggL
16ff#XJk
16eeKL
8.ddJ
=
4b
4ee
4.ee
8ff#
=
4.gg
8ff#
4ee
16ddKL
8.bJ
=
4a
16bKL
8.ddJ
4ffn
16eeKL
8.ggJ
=
4.dd
8b
8.ccL
16bJk
16aKL
8.gJ
=
4d
4g
4g
4r
!!linebreak:original
=||
4.dd
8ee
8.ddL
16bJk
16aKL
8.bJ
=
8.eeL
16bJk
16aKL
8.bJ
4.dd
8ffn
=
8eeL
16ffnL
16eeJJ
8.ddL
16eeJk
8.ggL
16ff#XJk
16eeKL
8.ddJ
=
4b
4ee
4.ee
8ff#
=
4.gg
8ff#
4ee
16ddKL
8.bJ
!!linebreak:original
=
4a
16bKL
8.ddJ
4ffn
16eeKL
8.ggJ
=
4.dd
8b
8.ccL
16bJk
16aKL
8.gJ
=
4d
4g
4g
4r
=||
*-
